X:1081
T:Fantasia 2
T:TWV 33:2
C:Georg Philipp Telemann
O:Germany
F:http://abc.musicaviva.com/tunes/telemann-georg-philipp/twv33-002/twv33-002-pno2.abc
V:1 Program 1 6 %Harpsichord
V:2 Program 1 6 bass %Harpsichord
M:4/2
L:1/8
K:Ddor
V:1
d4A4FED2 z2d^c|d2F2G2A2D2A2d2|f8| z2ed fedc|d2G2g4 z2fe gfed|e2A2a4 z2gfe2d2|^c2cde2[d2f2][c2-e2][c2a2]e2[d2f2]|[^c2-e2][c-e][cf][e2g2][d2f2][c4e4] z4|d4A4FED2 z2d^c|d2F2G2A2D4 z4| z2AGA2B2c2G2c4| z2_BA cBAGA2D2d4| z2c=B dcBAB2e^d eBcB|A2BcB2A2^GEFE AEBE|cEFE BEcE dEFE cEdE|e2E2e2E2e2E2 z4|a4e4cBA2 z2e2|dcBA cBA^G AcBA dcBc|AcBA cBA^G AcBAe4|dcBAE2^G2A^cea =g^fga|^f4 z4GBdg =fefg|e4 z4f4c4|AGF2 z4g4d4|_BAG2 z2d2cBAG BAG^F|G2_B2d2g2_b8| z2ag _bagfg2G2g4| z2fe gfede2ag aefe|d2efe2d2^c2cde2[d2f2]|[^c2-e29][c2a2]e2[d2f2][^c2-e2][c-e][cf][e2g2][d2f2]|[^c2e2]dcd2e2c8|D^FAd =cBcdB4 z4|CEGc _BABc FAcf _edef|_Bdf_b agab g^fga =fefg|_edef d^cd=e^c4d2e2|f4e2f2g4fefg|ae^cA afdAa2A2 zgfe|gfed fed^c dfed gfef|dfed fed^c dfeda4|gfedA2^c2DEFGA2dc|d2F2G2A2A8|]
V:2
d4A4FED2 z2d^c|d2F2G2A2D4 z4| z2AGA2B2c2G2C4| z2_BAB2AGA2D2d4| z2cBc2A2_B8|A4 z2D2A4 z2D2|A4^C2D2A4 z4|d4A4FED2 z2d^c|d2F2G2A2D2F2A2d2|f4F4 z2EDE2DC|D2G,2G4 z2FEF2ED|E2A,2A4^G4=G4|^F4=F4E4C2B,2|A,4D2C2B,4A,2F2|E^GAB EABc EGAB EdcB|c2BA^G2E2A4BAG2|A2C2D2E2C4F4|C4A2E2C4 z2^G2|A2D2E2E,2A,4 z4|D^FAd cBcdB4 z4|CEGc BABcA2GFE2C2|F4AGF2B2AG^F2D2|G4AG^F2G2_B,2C2D2|G,4 z4 z2dcd2e2|f2F2f4 z2=BAB2^c2|d2D2d4^c4=c4|B4_B4A4 z2D2|A4 z2D2A4^C2D2|A,2A2_B2G2A,^CEA G^FGA|^F4 z4G,B,DG =FEFG|E4 z4F4 z4|D2_B,2F2D2_E2^C2D2=B,2|=C2A,2_B,2^G,2A,AGA FAEA|Dd^cd GdFd EdcdD2_B2|A4A4A4 z2^c2|d2F2G2A2F4_B4|F4D2A2F4 z2^c2|d2G2A2A,2DEFGA2d^c|d2F2G2A2D8|]
W:
W:
W:  From Musica Viva - http://www.musicaviva.com
W:  the Internet center for free sheet music downloads.
